src/icons/brand/glyph/TikTokIcon.svg

<svg width="24" height="24" viewBox="0 0 24 24" fill="none" xmlns="http://www.w3.org/2000/svg">
<path d="M12.4536 2.01667C13.5845 2 14.7067 2.00833 15.829 2C15.8981 3.27498 16.3729 4.57497 17.3397 5.47496C18.3066 6.39994 19.6706 6.82494 21 6.9666V10.3249C19.7569 10.2832 18.5051 10.0332 17.3743 9.51657C16.8822 9.29991 16.4247 9.02491 15.9758 8.74158C15.9671 11.1749 15.9844 13.6082 15.9585 16.0332C15.8894 17.1998 15.4923 18.3581 14.7931 19.3165C13.6622 20.9164 11.7026 21.9581 9.69114 21.9914C8.45666 22.0581 7.22218 21.7331 6.16899 21.1331C4.42518 20.1414 3.19933 18.3248 3.01804 16.3748C3.00078 15.9582 2.99215 15.5415 3.00941 15.1332C3.1648 13.5499 3.97628 12.0332 5.23665 10.9999C6.66968 9.7999 8.67247 9.22491 10.5458 9.56657C10.563 10.7999 10.5112 12.0332 10.5112 13.2665C9.65661 12.9999 8.65521 13.0749 7.90416 13.5749C7.3603 13.9165 6.94593 14.4415 6.73011 15.0332C6.54883 15.4582 6.60062 15.9248 6.60926 16.3748C6.81644 17.7415 8.18041 18.8915 9.63071 18.7665C10.5976 18.7581 11.5213 18.2165 12.022 17.4248C12.186 17.1498 12.3673 16.8665 12.3759 16.5415C12.4622 15.0498 12.4277 13.5665 12.4363 12.0749C12.445 8.71658 12.4277 5.36662 12.4536 2.01667Z" fill="currentColor"/>
</svg>

<svg xmlns="http://www.w3.org/2000/svg" width="24" height="24" fill="currentColor" viewBox="0 0 24 24">
  <path d="M12.454 2.017C13.584 2 14.707 2.008 15.829 2c.07 1.275.544 2.575 1.51 3.475.968.925 2.332 1.35 3.661 1.492v3.358c-1.243-.042-2.495-.292-3.626-.808-.492-.217-.95-.492-1.398-.775-.009 2.433.008 4.866-.018 7.291a6.223 6.223 0 0 1-1.165 3.284c-1.13 1.6-3.09 2.641-5.102 2.674-1.234.067-2.469-.258-3.522-.858-1.744-.992-2.97-2.808-3.151-4.758a14.918 14.918 0 0 1-.009-1.242A6.188 6.188 0 0 1 5.237 11c1.433-1.2 3.435-1.775 5.309-1.433.017 1.233-.035 2.466-.035 3.7-.854-.267-1.856-.192-2.607.308a2.91 2.91 0 0 0-1.174 1.458c-.181.425-.13.892-.12 1.342.206 1.366 1.57 2.517 3.02 2.392.968-.009 1.891-.55 2.392-1.342.164-.275.345-.559.354-.884.086-1.491.052-2.975.06-4.466.009-3.358-.008-6.708.018-10.058Z"/>
</svg>
